svg/weather/heavy_rainstorm_line.svg

<?xml version="1.0" encoding="UTF-8"?>
<svg width="24px" height="24px" viewBox="0 0 24 24" version="1.1" xmlns="http://www.w3.org/2000/svg" xmlns:xlink="http://www.w3.org/1999/xlink">
    <title>heavy_rainstom_line</title>
    <g id="Icon" stroke="none" stroke-width="1" fill="none" fill-rule="evenodd">
        <g id="Weather" transform="translate(-289.000000, -192.000000)">
            <g id="heavy_rainstom_line" transform="translate(289.000000, 192.000000)">
                <path d="M24,0 L24,24 L0,24 L0,0 L24,0 Z M12.5935,23.2578 L12.5819,23.2595 L12.5109,23.295 L12.4919,23.2987 L12.4767,23.295 L12.4057,23.2595 C12.3958,23.2564 12.387,23.259 12.3821,23.2649 L12.378,23.2758 L12.3609,23.7031 L12.3659,23.7235 L12.3769,23.7357 L12.4805,23.8097 L12.4953,23.8136 L12.5071,23.8097 L12.6107,23.7357 L12.6233,23.7197 L12.6267,23.7031 L12.6096,23.2758 C12.6076,23.2657 12.601,23.2593 12.5935,23.2578 Z M12.8584,23.1453 L12.8445,23.1473 L12.6598,23.2397 L12.6499,23.2499 L12.6472,23.2611 L12.6651,23.6906 L12.6699,23.7034 L12.6784,23.7105 L12.8793,23.8032 C12.8914,23.8069 12.9022,23.803 12.9078,23.7952 L12.9118,23.7812 L12.8777,23.1665 C12.8753,23.1546 12.8674,23.147 12.8584,23.1453 Z M12.143,23.1473 C12.1332,23.1424 12.1222,23.1453 12.1156,23.1526 L12.1099,23.1665 L12.0758,23.7812 C12.0751,23.7927 12.0828,23.8019 12.0926,23.8046 L12.1083,23.8032 L12.3092,23.7105 L12.3186,23.7024 L12.3225,23.6906 L12.3404,23.2611 L12.3372,23.2485 L12.3278,23.2397 L12.143,23.1473 Z" id="MingCute" fill-rule="nonzero"></path>
                <path d="M11.5,2 C7.93814,2 5.04543,4.86494 5.00053,8.41614 C3.23468,9.18749 2,10.9486 2,13 C2,13.9091 2.24351,14.7643 2.66952,15.5007 C2.94607,15.9788 3.55779,16.1421 4.03585,15.8656 C4.51392,15.5891 4.67728,14.9773 4.40073,14.4993 C4.14607,14.059 4,13.5481 4,13 C4,11.5965 4.96468,10.4159 6.26851,10.0896 C6.75509,9.9678 7.08294,9.50471 7.02729,8.99923 C7.00928,8.83564 7,8.66909 7,8.5 C7,6.01472 9.01472,4 11.5,4 C13.576,4 15.326,5.40663 15.8441,7.32051 C15.9477,7.7033 16.2654,7.98914 16.6552,8.05324 C18.5524,8.36524 20,10.0145 20,12 C20,12.9016 19.7028,13.7309 19.2006,14.3993 C18.8689,14.8409 18.9579,15.4677 19.3994,15.7995 C19.841,16.1312 20.4678,16.0422 20.7996,15.6007 C21.553,14.5978 22,13.3497 22,12 C22,9.23462 20.13,6.90766 17.5856,6.21198 C16.66,3.75154 14.2856,2 11.5,2 Z M7.03195,14.1364 C7.56542,14.2793 7.882,14.8277 7.73906,15.3611 L6.18614,21.1567 C6.0432,21.6901 5.49487,22.0067 4.9614,21.8638 C4.42793,21.7208 4.11135,21.1725 4.25429,20.639 L5.80721,14.8435 C5.95015,14.31 6.49849,13.9934 7.03195,14.1364 Z M17.532,14.1364 C18.0654,14.2793 18.382,14.8277 18.2391,15.3611 L16.6862,21.1567 C16.5432,21.6902 15.9949,22.0067 15.4614,21.8638 C14.928,21.7209 14.6114,21.1725 14.7543,20.6391 L16.3072,14.8435 C16.4502,14.31 16.9985,13.9935 17.532,14.1364 Z M10.532,14.1365 C11.0654,14.2794 11.382,14.8277 11.2391,15.3612 L9.68617,21.1568 C9.54323,21.6902 8.99489,22.0068 8.46143,21.8639 C7.92796,21.7209 7.61138,21.1726 7.75432,20.6391 L9.30724,14.8436 C9.45018,14.3101 9.99851,13.9935 10.532,14.1365 Z M14.7391,15.3611 C14.882,14.8277 14.5654,14.2793 14.0319,14.1364 C13.4985,13.9935 12.9501,14.31 12.8072,14.8435 L11.2543,20.6391 C11.1113,21.1725 11.4279,21.7209 11.9614,21.8638 C12.4949,22.0067 13.0432,21.6902 13.1861,21.1567 L14.7391,15.3611 Z" id="形状" fill="#09244B"></path>
            </g>
        </g>
    </g>
</svg>

<svg xmlns="http://www.w3.org/2000/svg" width="24" height="24"><g fill="none" fill-rule="evenodd"><path d="M24 0v24H0V0h24ZM12.594 23.258l-.012.002-.071.035-.02.004-.014-.004-.071-.036c-.01-.003-.019 0-.024.006l-.004.01-.017.428.005.02.01.013.104.074.015.004.012-.004.104-.074.012-.016.004-.017-.017-.427c-.002-.01-.009-.017-.016-.018Zm.264-.113-.014.002-.184.093-.01.01-.003.011.018.43.005.012.008.008.201.092c.012.004.023 0 .029-.008l.004-.014-.034-.614c-.003-.012-.01-.02-.02-.022Zm-.715.002a.023.023 0 0 0-.027.006l-.006.014-.034.614c0 .012.007.02.017.024l.015-.002.201-.093.01-.008.003-.011.018-.43-.003-.012-.01-.01-.184-.092Z"/><path fill="#09244B" d="M11.5 2A6.5 6.5 0 0 0 5 8.416a5 5 0 0 0-2.33 7.085 1 1 0 0 0 1.73-1.002 3.002 3.002 0 0 1 1.868-4.41A1.01 1.01 0 0 0 7.029 9a4.5 4.5 0 0 1 8.817-1.679c.103.383.42.67.81.733a4.001 4.001 0 0 1 2.546 6.346 1 1 0 0 0 1.599 1.202 6.002 6.002 0 0 0-3.214-9.389A6.502 6.502 0 0 0 11.5 2ZM7.032 14.136a1 1 0 0 1 .707 1.225l-1.553 5.796a1 1 0 0 1-1.932-.518l1.553-5.795a1 1 0 0 1 1.225-.708Zm10.5 0a1 1 0 0 1 .707 1.225l-1.553 5.796a1 1 0 0 1-1.932-.518l1.553-5.795a1 1 0 0 1 1.225-.708Zm-7 0a1 1 0 0 1 .707 1.225l-1.553 5.796a1 1 0 0 1-1.932-.518l1.553-5.795a1 1 0 0 1 1.225-.707Zm4.207 1.225a1 1 0 0 0-1.932-.518l-1.553 5.796a1 1 0 1 0 1.932.518l1.553-5.796Z"/></g></svg>
